Catalina-dark/status/16/battery-missing.svg

<svg width="22" height="22" version="1.1" xmlns="http://www.w3.org/2000/svg">
<defs>
<style id="current-color-scheme" type="text/css">.ColorScheme-Text { color:#31363b; } .ColorScheme-Highlight { color:#3daee9; }</style>
</defs>
<path class="ColorScheme-Text" d="m9 4v1h-3v12c0 0.55 0.446 1 1 1h8c0.554 0 1-0.45 1-1v-12h-3v-1h-4zm2 4c1.105 0 2 0.8954 2 2 0 1.105-0.895 2-2 2v1h-1v-2h1c0.552 0 1-0.448 1-1 0-0.5523-0.448-1-1-1s-1 0.4477-1 1h-1c0-1.1046 0.895-2 2-2zm-1 6h1v1h-1v-1z" fill="currentColor"/>
</svg>

<svg xmlns="http://www.w3.org/2000/svg" width="22" height="22" version="1.1">
 <defs>
  <style id="current-color-scheme" type="text/css">
   .ColorScheme-Text { color:#31363b; } .ColorScheme-Highlight { color:#3daee9; }
  </style>
 </defs>
 <path style="fill:currentColor" class="ColorScheme-Text" d="M 9 4 L 9 5 L 6 5 L 6 17 C 6 17.55 6.446 18 7 18 L 15 18 C 15.554 18 16 17.55 16 17 L 16 5 L 13 5 L 13 4 L 9 4 z M 11 8 C 12.105 8 13 8.8954 13 10 C 13 11.105 12.105 12 11 12 L 11 13 L 10 13 L 10 11 L 11 11 C 11.552 11 12 10.552 12 10 C 12 9.4477 11.552 9 11 9 C 10.448 9 10 9.4477 10 10 L 9 10 C 9 8.8954 9.895 8 11 8 z M 10 14 L 11 14 L 11 15 L 10 15 L 10 14 z"/>
</svg>
